proprietary/assets/icons/gebouwen/kantoor-vol-energie.svg

<svg enable-background="new 0 0 64 64" height="64" viewBox="0 0 64 64" width="64" xmlns="http://www.w3.org/2000/svg"><g fill="none"><path d="m0 0h64v64h-64z"/><path d="m9 10h6v6h-6z"/><path d="m19 20h6v6h-6z"/><path d="m9 30h6v6h-6z"/><path d="m9 20h6v6h-6z"/><path d="m29 10h6v6h-6z"/><path d="m29 20h6v6h-6z"/><path d="m19 10h6v6h-6z"/></g><path d="m38 3h-32c-1.1 0-2 .9-2 2v47h4l11-15.8v-6.2h6v3h4v-3h6v3h5v-28c0-1.1-.9-2-2-2zm-23 33h-6v-6h6zm0-10h-6v-6h6zm0-10h-6v-6h6zm10 10h-6v-6h6zm0-10h-6v-6h6zm10 10h-6v-6h6zm0-10h-6v-6h6z"/><path d="m59.5 35h-36c-.6 0-1.5.3-1.9.9l-15.7 22.7c-.7 1 0 2.4 1.3 2.4h34.3c1.1 0 2.2-.5 2.8-1.5l15.2-22.3c.1 0 .3.1.2.4l-2.7 6.5v12.9h-8.4l-2.6 3.8c0 .1 0 .1-.1.2h15.1v-24.7c0-.7-.7-1.3-1.5-1.3zm-18.2 23h-31l13.7-20h31.2z"/><path d="m28.1 49-4.9 7h7.5l4.9-7z"/><path d="m36.9 47 4.8-6.9h-7.5l-4.8 6.9z"/><path d="m27.7 47 4.8-6.9h-7.5l-4.8 6.9z"/><path d="m18.9 49-4.9 7h7.5l4.8-7z"/><path d="m32.5 56h7.5l4.9-7h-7.6z"/><path d="m46.2 47 4.8-6.9h-7.5l-4.8 6.9z"/></svg>

<?xml version="1.0" encoding="utf-8"?>
<!-- Generator: Adobe Illustrator 21.0.2, SVG Export Plug-In . SVG Version: 6.00 Build 0)  -->
<!DOCTYPE svg PUBLIC "-//W3C//DTD SVG 1.1//EN" "http://www.w3.org/Graphics/SVG/1.1/DTD/svg11.dtd">
<svg version="1.1" xmlns="http://www.w3.org/2000/svg" xmlns:xlink="http://www.w3.org/1999/xlink" x="0px" y="0px" width="64px"
	 height="64px" viewBox="0 0 64 64" style="enable-background:new 0 0 64 64;" xml:space="preserve">
<style type="text/css">
	.st0{fill:none;}
	.st1{fill:#FFFFFF;}
</style>
<g id="_x36_4px_Box">
	<rect class="st0" width="64" height="64"/>
</g>
<g id="Icon">
	<g>
		<g>
			<rect x="9" y="10" class="st0" width="6" height="6"/>
			<rect x="19" y="20" class="st0" width="6" height="6"/>
			<rect x="9" y="30" class="st0" width="6" height="6"/>
			<rect x="9" y="20" class="st0" width="6" height="6"/>
			<rect x="29" y="10" class="st0" width="6" height="6"/>
			<rect x="29" y="20" class="st0" width="6" height="6"/>
			<rect x="19" y="10" class="st0" width="6" height="6"/>
			<path d="M38,3H6C4.9,3,4,3.9,4,5v47h4l11-15.8V30h6v3h4v-3h6v3h5V5C40,3.9,39.1,3,38,3z M15,36H9v-6h6V36z M15,26H9v-6h6V26z
				 M15,16H9v-6h6V16z M25,26h-6v-6h6V26z M25,16h-6v-6h6V16z M35,26h-6v-6h6V26z M35,16h-6v-6h6V16z"/>
		</g>
		<path d="M59.5,35h-36c-0.6,0-1.5,0.3-1.9,0.9L5.9,58.6c-0.7,1,0,2.4,1.3,2.4h34.3c1.1,0,2.2-0.5,2.8-1.5l15.2-22.3
			c0.1,0,0.3,0.1,0.2,0.4L57,44.1V57h-8.4l-2.6,3.8C46,60.9,46,60.9,45.9,61H61V36.3C61,35.6,60.3,35,59.5,35z M41.3,58h-31L24,38
			h31.2L41.3,58z"/>
		<polygon points="28.1,49 23.2,56 30.7,56 35.6,49 		"/>
		<polygon points="36.9,47 41.7,40.1 34.2,40.1 29.4,47 		"/>
		<polygon points="27.7,47 32.5,40.1 25,40.1 20.2,47 		"/>
		<polygon points="18.9,49 14,56 21.5,56 26.3,49 		"/>
		<polygon points="32.5,56 40,56 44.9,49 37.3,49 		"/>
		<polygon points="46.2,47 51,40.1 43.5,40.1 38.7,47 		"/>
	</g>
</g>
</svg>
